X:358
T: ES FUHR EIN BAUR INS HOLZ
N: E0987
O: Europa, Mitteleuropa, Deutschland, Brandenburg; Thueringen
R: Tanz - Lied, Reigen, Gesellschafts - Spiel
M: 2/4
L: 1/8
K: G
D | GGGG | G2z
A | BBBB | B2z
B | dddd | dcc2 |
B2B2 | BAA
d | BBAA | G2z

@@@ Tune index: 4671
